icons/coin.svg

<svg width="24" height="24" viewBox="0 0 24 24" fill="none" xmlns="http://www.w3.org/2000/svg">
<path fill-rule="evenodd" clip-rule="evenodd" d="M3 8.9905L3.00001 10.5095C5.50819 12.3878 8.62276 13.5 12 13.5C15.3772 13.5 18.4918 12.3878 21 10.5095L21 8.9905C18.4918 7.11223 15.3772 6 12 6C8.62275 6 5.50819 7.11223 3 8.9905ZM21 12.9308C18.389 14.5589 15.3035 15.5 12 15.5C8.69647 15.5 5.61106 14.5589 3.00001 12.9308V15.0095C5.50819 16.8878 8.62276 18 12 18C15.3772 18 18.4918 16.8878 21 15.0095V12.9308ZM1.37569 7.71882C4.2872 5.39196 7.9823 4 12 4C16.0177 4 19.7128 5.39196 22.6243 7.71882C22.8617 7.90859 23 8.19604 23 8.5L23 15.5C23 15.804 22.8618 16.0914 22.6243 16.2812C19.7128 18.608 16.0177 20 12 20C7.9823 20 4.28721 18.608 1.3757 16.2812C1.13825 16.0914 1.00001 15.804 1.00001 15.5L1 8.5C0.999999 8.19605 1.13825 7.90859 1.37569 7.71882Z" fill="black"/>
</svg>

<svg
  width="24"
  height="24"
  viewBox="0 0 24 24"
  xmlns="http://www.w3.org/2000/svg"
>
  <path
    fill-rule="evenodd"
    clip-rule="evenodd"
    d="M3 8.99v1.52a14.96 14.96 0 0 0 9 2.99 14.96 14.96 0 0 0 9-2.99V8.99A14.96 14.96 0 0 0 12 6a14.96 14.96 0 0 0-9 2.99zm18 3.94a16.956 16.956 0 0 1-9 2.57c-3.304 0-6.389-.941-9-2.57v2.08A14.96 14.96 0 0 0 12 18a14.96 14.96 0 0 0 9-2.99v-2.08zM1.376 7.72A16.962 16.962 0 0 1 12 4c4.018 0 7.713 1.392 10.624 3.719A1 1 0 0 1 23 8.5v7a1 1 0 0 1-.376.781A16.963 16.963 0 0 1 12 20a16.963 16.963 0 0 1-10.624-3.719A1 1 0 0 1 1 15.5v-7a1 1 0 0 1 .376-.781z"
  />
</svg>
